assets/images/gi.svg

<svg xmlns="http://www.w3.org/2000/svg" xmlns:xlink="http://www.w3.org/1999/xlink" width="1000" height="500" viewBox="0 0 512 256"><path fill="#da000c" d="M0 0h512v256H0z"/><path fill="#fff" d="M0 0h512v171.5H0z"/><g stroke="#000"><g id="a" fill="#da000c" stroke-linecap="square"><path fill="#000" stroke="none" d="M196.571 116.303h64v43.993h-64z"/><path d="M229.819 153.865H190.75l-8.66 5.7v6.04h47.729M213.469 128.594c5.625 0 10.219 4.689 10.219 10.469v14.78h7.343v-56H190.75v56h12.5v-14.78c0-5.554 4.515-10.47 10.219-10.47z"/><path fill="#000" stroke="none" d="M204.528 59.962h18.523v33.959h-18.523z"/><path d="M223 88.656h-16.209v-5.75h-11.885v5.75h-8.062v-5.75h-4.813v10.438H223m-36.156-.038h34.97v4.538h-34.97z"/><path d="M200.719 47.625v35.281h6.072V73.22c0-3.63 2.562-6.6 6.147-6.781.115-.006.226 0 .343 0a6.78 6.78 0 016.781 6.78v9.688h5.782V47.625zM198.531 42.844v4.781h29.25v-4.781zM194.781 33.688v9.156h35.094v-9.157h-5.406v4.657h-6.531v-4.657h-9.97v4.657h-6.53v-4.657zM182.09 159.564H230M261 156.813h-32.438l-9.78 4.718v7.031H261"/><path stroke-linecap="butt" d="M218.771 161.52H262"/></g><use xlink:href="#a" transform="matrix(-1 0 0 1 512 0)"/><g fill="#f8d80e"><g stroke-linecap="round"><path stroke-width=".768" d="M273.297 150.031c-2.654.883-5.053 2.369-7.469 3.753-3.1 1.831-6.107 3.827-8.904 6.099-.985.649-1.93 1.36-2.69 2.273-1.025.878-2.064 2.055-1.868 3.513.051.643.873-.755 1.414-.823a4.39 4.39 0 013.142-.471c1.271-1.339 2.91-2.236 4.325-3.406 3.004-2.243 6.236-4.168 9.525-5.961 1.148-.589 2.3-1.186 3.525-1.602l-1-3.375z"/><path d="M260.4 157.391v3.912M262.817 155.685v3.883M265.233 154.18v3.858M267.65 152.694v3.981"/><path stroke-width=".768" d="M238.891 150.156l-1.188 3.313c5.537 2.1 10.81 4.878 15.798 8.06 1.691 1.15 3.467 2.266 4.796 3.846.293.81-.514 1.489-1.314 1.244-.732-.249-1.453-.532-2.226-.004-1.107.503-2.106 2.141-.426 2.69 2.315 1.556 6.082.88 7.195-1.844.581-1.402.618-3.196-.508-4.345-2.063-2.364-4.797-4.008-7.421-5.672-4.69-2.82-9.573-5.374-14.706-7.288z"/><path d="M254.05 158.035l-.313 3.34M256.832 159.74l-.862 3.269M259.804 162.012l-1.808 2.537M260.715 168.18l-2.61-1.4M261.528 165.429l-2.995.28M257.665 169.765l-.205-2.633M256.568 166.756l-2.473 1.822M244.677 152.937v3.115M250.963 156.244v3.534M247.82 154.593v3.32"/></g><path d="M235.781 227.563v8.03h5.031v-4.03h6.844v4.03h5.406v-8.03zm0 11.062v8.063h17.281v-8.063h-5.406v4.031h-6.844v-4.031z"/><path d="M253.052 193.651h4.99v58.115h-4.99z"/><path d="M253.052 198.679h4.99v50.06h-4.99z"/><path stroke-width="1.024" d="M255.547 179.406l10.625 6.188-10.625 6.156-10.625-6.156zm-14.219 3.969h-2.781v4.438h2.781l14.219 8.25 14.219-8.25h2.78v-4.438h-2.78l-14.22-8.25z"/><path stroke-width="1.024" d="M255.344 164.281c-2.419.34-4.226 2.73-4.094 5.134.01 3.738-.018 7.476.014 11.214.129 2.408 2.233 4.566 4.675 4.588 1.985.188 3.979-.972 4.811-2.78l-1.718-1.031c-.444 1.184-1.724 1.918-2.97 1.781-1.634.046-2.958-1.544-2.812-3.134.01-3.713-.019-7.428.015-11.14.09-1.516 1.535-2.755 3.048-2.6.626-.18 1.487.676 1.875-.063.583-.83-.415-1.477-.97-1.937-.613-.085-1.253-.008-1.874-.032zm5.781 3.906c-.396.746-1.216 1.19-1.875 1.58v7.514l2 1.156c-.008-3.204.016-6.408-.011-9.611-.032-.197-.008-.499-.114-.639z"/></g><g fill="#da000c"><path fill="#000" stroke="none" d="M240.803 38.351h29.329v53.255h-29.329z"/><path d="M238.75 38.375v44.563h9.313v-13.22c0-3.048 1.952-7.28 7.937-7.28s7.938 4.232 7.938 7.28v13.22h9.312V38.374zm15.813 5h2.875v15.25h-2.875zm-8.25 3h2.906v11.156h-2.906zm16.468 0h2.906v11.156h-2.906zM235.594 31.969v6.343h40.812V31.97zM231.75 24.594v7.375h48.5v-7.375h-6.094v4.062h-6.875v-4.062h-7.844v4.062h-6.875v-4.062h-7.843v4.062h-6.875v-4.062zM222.75 97.844v4.594h66.5v-4.594z"/><path d="M220.031 82.906v14.938h71.938V82.906h-6.813v5.75h-9.062v-5.75h-12.156v5.75h-15.875v-5.75h-12.157v5.75h-9.062v-5.75z"/><path stroke-linejoin="round" d="M228.688 102.438v54.343h12.843v-20.344c0-9.582 6.397-14.093 14.469-14.093 7.759 0 14.469 4.51 14.469 14.094v20.343h12.844v-54.344z"/></g></g></svg>

<?xml version="1.0" encoding="UTF-8"?>
<svg xmlns="http://www.w3.org/2000/svg" xmlns:xlink="http://www.w3.org/1999/xlink" width="px" height="px" viewBox="0 0 500 250" version="1.1">
<g id="surface1">
<rect x="0" y="0" width="500" height="250" style="fill:rgb(85.490196%,0%,4.705882%);fill-opacity:1;stroke:none;"/>
<path style=" stroke:none;fill-rule:nonzero;fill:rgb(100%,100%,100%);fill-opacity:1;" d="M 0 0 L 500 0 L 500 167.480469 L 0 167.480469 Z M 0 0 "/>
<path style=" stroke:none;fill-rule:nonzero;fill:rgb(0%,0%,0%);fill-opacity:1;" d="M 191.964844 113.578125 L 254.464844 113.578125 L 254.464844 156.539062 L 191.964844 156.539062 Z M 191.964844 113.578125 "/>
<path style="fill-rule:nonzero;fill:rgb(85.490196%,0%,4.705882%);fill-opacity:1;stroke-width:1;stroke-linecap:square;stroke-linejoin:miter;stroke:rgb(0%,0%,0%);stroke-opacity:1;stroke-miterlimit:4;" d="M 229.82 153.864 L 190.752 153.864 L 182.088 159.564 L 182.088 165.604 L 229.82 165.604 M 213.468 128.592 C 219.096 128.592 223.688 133.284 223.688 139.064 L 223.688 153.844 L 231.032 153.844 L 231.032 97.844 L 190.752 97.844 L 190.752 153.844 L 203.248 153.844 L 203.248 139.064 C 203.248 133.508 207.764 128.592 213.468 128.592 Z M 213.468 128.592 " transform="matrix(0.976562,0,0,0.976562,0,0)"/>
<path style=" stroke:none;fill-rule:nonzero;fill:rgb(0%,0%,0%);fill-opacity:1;" d="M 199.734375 58.554688 L 217.824219 58.554688 L 217.824219 91.71875 L 199.734375 91.71875 Z M 199.734375 58.554688 "/>
<path style="fill-rule:nonzero;fill:rgb(85.490196%,0%,4.705882%);fill-opacity:1;stroke-width:1;stroke-linecap:square;stroke-linejoin:miter;stroke:rgb(0%,0%,0%);stroke-opacity:1;stroke-miterlimit:4;" d="M 223 88.656 L 206.792 88.656 L 206.792 82.904 L 194.904 82.904 L 194.904 88.656 L 186.844 88.656 L 186.844 82.904 L 182.032 82.904 L 182.032 93.344 L 223 93.344 M 186.844 93.304 L 221.816 93.304 L 221.816 97.844 L 186.844 97.844 Z M 186.844 93.304 " transform="matrix(0.976562,0,0,0.976562,0,0)"/>
<path style="fill-rule:nonzero;fill:rgb(85.490196%,0%,4.705882%);fill-opacity:1;stroke-width:1;stroke-linecap:square;stroke-linejoin:miter;stroke:rgb(0%,0%,0%);stroke-opacity:1;stroke-miterlimit:4;" d="M 200.72 47.624 L 200.72 82.904 L 206.792 82.904 L 206.792 73.22 C 206.792 69.592 209.352 66.62 212.936 66.44 C 213.052 66.432 213.164 66.44 213.28 66.44 C 194.936 106.988 147.188 124.988 106.64 106.64 C 66.092 88.292 48.092 40.548 66.44 0 L 66.44 9.688 L 72.22 9.688 L 72.22 47.624 Z M 198.532 42.844 L 198.532 47.624 L 227.78 47.624 L 227.78 42.844 Z M 194.78 33.688 L 194.78 42.844 L 229.876 42.844 L 229.876 33.688 L 224.468 33.688 L 224.468 38.344 L 217.936 38.344 L 217.936 33.688 L 207.968 33.688 L 207.968 38.344 L 201.44 38.344 L 201.44 33.688 Z M 182.088 159.564 L 230 159.564 M 261 156.812 L 228.56 156.812 L 218.784 161.532 L 218.784 168.56 L 261 168.56 " transform="matrix(0.976562,0,0,0.976562,0,0)"/>
<path style="fill:none;stroke-width:1;stroke-linecap:butt;stroke-linejoin:miter;stroke:rgb(0%,0%,0%);stroke-opacity:1;stroke-miterlimit:4;" d="M 218.772 161.52 L 262 161.52 " transform="matrix(0.976562,0,0,0.976562,0,0)"/>
<path style=" stroke:none;fill-rule:nonzero;fill:rgb(0%,0%,0%);fill-opacity:1;" d="M 308.035156 113.578125 L 245.535156 113.578125 L 245.535156 156.539062 L 308.035156 156.539062 Z M 308.035156 113.578125 "/>
<path style="fill-rule:nonzero;fill:rgb(85.490196%,0%,4.705882%);fill-opacity:1;stroke-width:1;stroke-linecap:square;stroke-linejoin:miter;stroke:rgb(0%,0%,0%);stroke-opacity:1;stroke-miterlimit:4;" d="M 229.82 153.864 L 190.752 153.864 L 182.088 159.564 L 182.088 165.604 L 229.82 165.604 M 213.468 128.592 C 219.096 128.592 223.688 133.284 223.688 139.064 L 223.688 153.844 L 231.032 153.844 L 231.032 97.844 L 190.752 97.844 L 190.752 153.844 L 203.248 153.844 L 203.248 139.064 C 203.248 133.508 207.764 128.592 213.468 128.592 Z M 213.468 128.592 " transform="matrix(-0.976562,0,0,0.976562,500,0)"/>
<path style=" stroke:none;fill-rule:nonzero;fill:rgb(0%,0%,0%);fill-opacity:1;" d="M 300.265625 58.554688 L 282.175781 58.554688 L 282.175781 91.71875 L 300.265625 91.71875 Z M 300.265625 58.554688 "/>
<path style="fill-rule:nonzero;fill:rgb(85.490196%,0%,4.705882%);fill-opacity:1;stroke-width:1;stroke-linecap:square;stroke-linejoin:miter;stroke:rgb(0%,0%,0%);stroke-opacity:1;stroke-miterlimit:4;" d="M 223 88.656 L 206.792 88.656 L 206.792 82.904 L 194.904 82.904 L 194.904 88.656 L 186.844 88.656 L 186.844 82.904 L 182.032 82.904 L 182.032 93.344 L 223 93.344 M 186.844 93.304 L 221.816 93.304 L 221.816 97.844 L 186.844 97.844 Z M 186.844 93.304 " transform="matrix(-0.976562,0,0,0.976562,500,0)"/>
<path style="fill-rule:nonzero;fill:rgb(85.490196%,0%,4.705882%);fill-opacity:1;stroke-width:1;stroke-linecap:square;stroke-linejoin:miter;stroke:rgb(0%,0%,0%);stroke-opacity:1;stroke-miterlimit:4;" d="M 200.72 47.624 L 200.72 82.904 L 206.792 82.904 L 206.792 73.22 C 206.792 69.592 209.352 66.62 212.936 66.44 C 213.052 66.432 213.164 66.44 213.28 66.44 C 194.936 106.988 147.188 124.988 106.64 106.64 C 66.092 88.292 48.092 40.548 66.44 0 L 66.44 9.688 L 72.22 9.688 L 72.22 47.624 Z M 198.532 42.844 L 198.532 47.624 L 227.78 47.624 L 227.78 42.844 Z M 194.78 33.688 L 194.78 42.844 L 229.876 42.844 L 229.876 33.688 L 224.468 33.688 L 224.468 38.344 L 217.936 38.344 L 217.936 33.688 L 207.968 33.688 L 207.968 38.344 L 201.44 38.344 L 201.44 33.688 Z M 182.088 159.564 L 230 159.564 M 261 156.812 L 228.56 156.812 L 218.784 161.532 L 218.784 168.56 L 261 168.56 " transform="matrix(-0.976562,0,0,0.976562,500,0)"/>
<path style="fill:none;stroke-width:1;stroke-linecap:butt;stroke-linejoin:miter;stroke:rgb(0%,0%,0%);stroke-opacity:1;stroke-miterlimit:4;" d="M 218.772 161.52 L 262 161.52 " transform="matrix(-0.976562,0,0,0.976562,500,0)"/>
<path style="fill-rule:nonzero;fill:rgb(97.254902%,84.705882%,5.490196%);fill-opacity:1;stroke-width:0.768;stroke-linecap:round;stroke-linejoin:miter;stroke:rgb(0%,0%,0%);stroke-opacity:1;stroke-miterlimit:4;" d="M 273.296 150.032 C 270.644 150.916 268.244 152.4 265.828 153.784 C 262.728 155.616 259.72 157.612 256.924 159.884 C 255.94 160.532 254.992 161.244 254.232 162.156 C 253.208 163.032 252.168 164.212 252.368 165.668 C 252.416 166.312 253.24 164.912 253.78 164.844 C 208.26 189.404 151.448 172.412 126.888 126.888 C 102.332 81.368 119.324 24.56 164.844 0 C 166.116 -1.34 167.756 -2.236 169.172 -3.404 C 172.176 -5.648 175.408 -7.572 178.696 -9.368 C 179.844 -9.956 180.996 -10.552 182.22 -10.968 L 181.22 -14.344 Z M 273.296 150.032 " transform="matrix(0.976562,0,0,0.976562,0,0)"/>
<path style="fill-rule:nonzero;fill:rgb(97.254902%,84.705882%,5.490196%);fill-opacity:1;stroke-width:1;stroke-linecap:round;stroke-linejoin:miter;stroke:rgb(0%,0%,0%);stroke-opacity:1;stroke-miterlimit:4;" d="M 260.4 157.392 L 260.4 161.304 M 262.816 155.684 L 262.816 159.568 M 265.232 154.18 L 265.232 158.04 M 267.652 152.696 L 267.652 156.676 " transform="matrix(0.976562,0,0,0.976562,0,0)"/>
<path style="fill-rule:nonzero;fill:rgb(97.254902%,84.705882%,5.490196%);fill-opacity:1;stroke-width:0.768;stroke-linecap:round;stroke-linejoin:miter;stroke:rgb(0%,0%,0%);stroke-opacity:1;stroke-miterlimit:4;" d="M 238.892 150.156 L 237.704 153.468 C 243.24 155.568 248.512 158.348 253.5 161.528 C 255.192 162.68 256.968 163.796 258.296 165.376 C 258.592 166.184 257.784 166.864 256.984 166.62 C 256.252 166.368 255.528 166.088 254.756 166.616 C 253.648 167.12 252.652 168.756 254.332 169.304 C 256.648 170.86 260.412 170.184 261.528 167.46 C 262.108 166.06 262.144 164.264 261.02 163.116 C 258.956 160.752 256.22 159.108 253.596 157.444 C 248.908 154.624 244.024 152.072 238.892 150.156 Z M 238.892 150.156 " transform="matrix(0.976562,0,0,0.976562,0,0)"/>
<path style="fill-rule:nonzero;fill:rgb(97.254902%,84.705882%,5.490196%);fill-opacity:1;stroke-width:1;stroke-linecap:round;stroke-linejoin:miter;stroke:rgb(0%,0%,0%);stroke-opacity:1;stroke-miterlimit:4;" d="M 254.048 158.036 L 253.736 161.376 M 256.832 159.74 L 255.968 163.008 M 259.804 162.012 L 257.996 164.548 M 260.716 168.18 L 258.104 166.78 M 261.528 165.428 L 258.532 165.708 M 257.664 169.764 L 257.46 167.132 M 256.568 166.756 L 254.096 168.576 M 244.676 152.936 L 244.676 156.052 M 250.964 156.244 L 250.964 159.776 M 247.82 154.592 L 247.82 157.912 " transform="matrix(0.976562,0,0,0.976562,0,0)"/>
<path style="fill-rule:nonzero;fill:rgb(97.254902%,84.705882%,5.490196%);fill-opacity:1;stroke-width:1;stroke-linecap:butt;stroke-linejoin:miter;stroke:rgb(0%,0%,0%);stroke-opacity:1;stroke-miterlimit:4;" d="M 235.78 227.564 L 235.78 235.592 L 240.812 235.592 L 240.812 231.564 L 247.656 231.564 L 247.656 235.592 L 253.064 235.592 L 253.064 227.564 Z M 235.78 238.624 L 235.78 246.688 L 253.064 246.688 L 253.064 238.624 L 247.656 238.624 L 247.656 242.656 L 240.812 242.656 L 240.812 238.624 Z M 235.78 238.624 " transform="matrix(0.976562,0,0,0.976562,0,0)"/>
<path style="fill-rule:nonzero;fill:rgb(97.254902%,84.705882%,5.490196%);fill-opacity:1;stroke-width:1;stroke-linecap:butt;stroke-linejoin:miter;stroke:rgb(0%,0%,0%);stroke-opacity:1;stroke-miterlimit:4;" d="M 253.052 193.652 L 258.044 193.652 L 258.044 251.768 L 253.052 251.768 Z M 253.052 193.652 " transform="matrix(0.976562,0,0,0.976562,0,0)"/>
<path style="fill-rule:nonzero;fill:rgb(97.254902%,84.705882%,5.490196%);fill-opacity:1;stroke-width:1;stroke-linecap:butt;stroke-linejoin:miter;stroke:rgb(0%,0%,0%);stroke-opacity:1;stroke-miterlimit:4;" d="M 253.052 198.68 L 258.044 198.68 L 258.044 248.74 L 253.052 248.74 Z M 253.052 198.68 " transform="matrix(0.976562,0,0,0.976562,0,0)"/>
<path style="fill-rule:nonzero;fill:rgb(97.254902%,84.705882%,5.490196%);fill-opacity:1;stroke-width:1.024;stroke-linecap:butt;stroke-linejoin:miter;stroke:rgb(0%,0%,0%);stroke-opacity:1;stroke-miterlimit:4;" d="M 255.548 179.408 L 266.172 185.592 L 255.548 191.752 L 244.924 185.592 Z M 241.328 183.376 L 238.548 183.376 L 238.548 187.812 L 241.328 187.812 L 255.548 196.064 L 269.768 187.812 L 272.544 187.812 L 272.544 183.376 L 269.768 183.376 L 255.548 175.124 Z M 241.328 183.376 " transform="matrix(0.976562,0,0,0.976562,0,0)"/>
<path style="fill-rule:nonzero;fill:rgb(97.254902%,84.705882%,5.490196%);fill-opacity:1;stroke-width:1.024;stroke-linecap:butt;stroke-linejoin:miter;stroke:rgb(0%,0%,0%);stroke-opacity:1;stroke-miterlimit:4;" d="M 255.344 164.28 C 252.924 164.62 251.12 167.012 251.248 169.416 C 251.26 173.152 251.232 176.892 251.264 180.628 C 251.392 183.036 253.496 185.196 255.94 185.216 C 257.924 185.404 259.92 184.244 260.752 182.436 L 259.032 181.404 C 258.588 182.588 257.308 183.324 256.06 183.188 C 254.428 183.232 253.104 181.644 253.248 180.052 C 253.26 176.34 253.232 172.624 253.264 168.912 C 253.356 167.396 254.8 166.16 256.312 166.312 C 256.94 166.132 257.8 166.988 258.188 166.252 C 258.772 165.42 257.772 164.772 257.216 164.312 C 256.604 164.228 255.964 164.304 255.344 164.28 Z M 261.124 168.188 C 260.728 168.932 259.908 169.376 259.248 169.768 L 259.248 177.28 L 261.248 178.436 C 261.244 175.232 261.268 172.028 261.24 168.828 C 261.208 168.628 261.232 168.328 261.124 168.188 Z M 261.124 168.188 " transform="matrix(0.976562,0,0,0.976562,0,0)"/>
<path style=" stroke:none;fill-rule:nonzero;fill:rgb(0%,0%,0%);fill-opacity:1;" d="M 235.160156 37.453125 L 263.800781 37.453125 L 263.800781 89.460938 L 235.160156 89.460938 Z M 235.160156 37.453125 "/>
<path style="fill-rule:nonzero;fill:rgb(85.490196%,0%,4.705882%);fill-opacity:1;stroke-width:1;stroke-linecap:butt;stroke-linejoin:miter;stroke:rgb(0%,0%,0%);stroke-opacity:1;stroke-miterlimit:4;" d="M 238.752 38.376 L 238.752 82.936 L 248.064 82.936 L 248.064 69.72 C 248.064 66.672 250.016 62.44 256 62.44 C 261.984 62.44 263.936 66.672 263.936 69.72 L 263.936 82.936 L 273.248 82.936 L 273.248 38.372 Z M 254.564 43.376 L 257.44 43.376 L 257.44 58.624 L 254.564 58.624 Z M 246.312 46.376 L 249.22 46.376 L 249.22 57.532 L 246.312 57.532 Z M 262.78 46.376 L 265.688 46.376 L 265.688 57.532 L 262.78 57.532 Z M 235.592 31.968 L 235.592 38.312 L 276.408 38.312 L 276.408 31.968 Z M 231.752 24.592 L 231.752 31.968 L 280.248 31.968 L 280.248 24.592 L 274.156 24.592 L 274.156 28.656 L 267.28 28.656 L 267.28 24.592 L 259.436 24.592 L 259.436 28.656 L 252.56 28.656 L 252.56 24.592 L 244.72 24.592 L 244.72 28.656 L 237.844 28.656 L 237.844 24.592 Z M 222.752 97.844 L 222.752 102.44 L 289.248 102.44 L 289.248 97.844 Z M 222.752 97.844 " transform="matrix(0.976562,0,0,0.976562,0,0)"/>
<path style="fill-rule:nonzero;fill:rgb(85.490196%,0%,4.705882%);fill-opacity:1;stroke-width:1;stroke-linecap:butt;stroke-linejoin:miter;stroke:rgb(0%,0%,0%);stroke-opacity:1;stroke-miterlimit:4;" d="M 220.032 82.904 L 220.032 97.844 L 291.968 97.844 L 291.968 82.904 L 285.156 82.904 L 285.156 88.656 L 276.096 88.656 L 276.096 82.904 L 263.936 82.904 L 263.936 88.656 L 248.064 88.656 L 248.064 82.904 L 235.904 82.904 L 235.904 88.656 L 226.844 88.656 L 226.844 82.904 Z M 220.032 82.904 " transform="matrix(0.976562,0,0,0.976562,0,0)"/>
<path style="fill-rule:nonzero;fill:rgb(85.490196%,0%,4.705882%);fill-opacity:1;stroke-width:1;stroke-linecap:butt;stroke-linejoin:round;stroke:rgb(0%,0%,0%);stroke-opacity:1;stroke-miterlimit:4;" d="M 228.688 102.44 L 228.688 156.78 L 241.532 156.78 L 241.532 136.436 C 241.532 126.856 247.928 122.344 256 122.344 C 263.76 122.344 270.468 126.856 270.468 136.44 L 270.468 156.78 L 283.312 156.78 L 283.312 102.436 Z M 228.688 102.44 " transform="matrix(0.976562,0,0,0.976562,0,0)"/>
</g>
</svg>
